X:1
T:plaisir d'amour
T:plaisir d'amour 
T:    Martini (1741-1816) arr. finn tranberg
T:Claris de Florian (1755-1794)                                         pour mademoiselle Anna Tranberg
T:www.finntranberg.dk
C:Martini arr. finn tranberg
Z:www.finntranberg.dk
%%score { 1 | 2 }
L:1/8
Q:3/8=50
M:6/8
K:Eb
V:1 treble nm="Piano" snm="Pno."
V:2 bass 
V:1
 B, |"Eb" [G,B,E]3"Bb" [B,DF]3 |"Eb" [B,EG]- [B,EG]4 G |"Bb7" [DFA]2 A"Eb" [B,EG]EG | %4
w: plai-|sir d'a-|mour * ne|du- re qu'un _ mo-|
"Bb" [B,DF]- [B,DF]4 B, |"F7" [=A,C]2 A,/C/"Bb7" [B,D]2 B,/D/ | %6
w: ment * cha-|grin * * d'a- * *|
"Eb/G" !1!!3![B,E]"Bb/F"!1!!2!!4![B,DF]"Eb"!1!!3!!5![B,EG]"Fm/Ab" C[CF]"Fm"[CFA] | %7
w: mour du- re tou- te la|
"Eb" [B,EG]3"Bb7" [B,DF]3 |"Eb" [G,B,E]- [G,B,E]4 E |"Eb" [EGB]2 G/B/"Ab" [EAc]2 A/c/ | %10
w: vi- *|e. * J'ai|tout * * quit- * *|
"Eb" !1!!2!!3![EGB]!2!!4![Ac]!3!!5![Bd]"Ab/Eb" !4!e!3!d!2!c |"Eb" [EGB]3"Bb7" [DFA]3 | %12
w: té pour l'in- gra- te Syl-|vi- *|
"Eb" [B,EG]- [B,EG]3 z2 |"F7" [CF=A]2 F/A/"Bb" [DFB]2"G" [DG=B] |"Cm" [EGc]2 d edc | %15
w: e; *|el- * * le me|quitte et prend _ un|
"Bb" [DFB]3"F7" [CEF=A]3 |"Bb" [DFB]- [DFB]4 B, |"Eb" [G,B,E]3"Bb" [B,DF]3 | %18
w: autre a-|mant. * Plai-|sir d'a-|
"Eb" [B,EG]- [B,EG]4 G |"Bb7" [DFA]2 A"Eb" [B,EG]EG |"Bb" [B,DF]- [B,DF]4 B, | %21
w: mour * ne|du- re qu'un _ mo-|ment * cha-|
"F7" [=A,C]2 A,/C/"Bb7" [B,D]2 B,/D/ |"Eb/G" [B,E]"Bb/F"[B,DF]"Eb"[B,EG]"Fm/Ab" C[CF]"Fm"[CFA] | %23
w: grin * * d'a- * *|mour du- re tou- te la|
"Eb" [B,EG]3"Bb7" [B,DF]3 |"Eb" [G,B,E]6 |] %25
w: vi- *|e.|
V:2
 B,, | E,,B,,E, B,,D,F, | E,,B,,E, G, E,2 | B,,D,F, E,,B,,E, | B,,D,F, B, F,2 | %5
 F,,/C,/ E,2 B,,/F,/ A,2 | !2!G,,!3!F,,!4!E,, !3!A,,C,F, | E,,B,,G, B,,F,A, | E,,B,,E, G, E,2 | %9
 E,,/B,,/ E,2 A,,/E,/ A,2 | [E,G,]A,B, [E,C]B,A, | E,,B,,G, B,,F,A, | E,,B,,E, G,E,B,, | %13
 F,,/C,/ E,2 B,,F,G, | C,G,D, C,D,E, | B,,F,B, F,,C,=A, | B,,D,F, B,F,B,, | E,,B,,E, B,,D,F, | %18
 E,,B,,E, G, E,2 | B,,D,F, E,,B,,E, | B,,D,F, B, F,2 | F,,/C,/ E,2 B,,/F,/ A,2 | %22
 G,,F,,E,, A,,C,F, | E,,B,,G, B,,F,A, | [E,,E,]6 |] %25

